X:355
T:Peaches and Cream
C:Alan Munde
N:Transcribed by Larry Tanner
R:bluegrass
L:1/8
Q:1/4=220
M:4/4
K:C
z2 GA Bc de |: "C"[ge][ge] [ge][ge] [ge][ge] [ge][ge] | [g2e2] GA Bc de | "A"[af][af] [af][af] [af][af] [af][af] | 
[a2e2] GA Bc d2 | "Dm"[af][af] [af][af] [af][af] [af][af] | [af][af] [ae][ae] [a2f2] [a2e2] | 
"G"[gd][gd] [gd][gd] [gd][gd] [gd][gd] |1 [g2d2] GA Bc de | "Dm"[af][af] [af][af] [af][af] [af][af] | 
[af][af] [ae][ae] [a2f2] [a2e2] | "G"[gd][gd] [gd][gd] [gd][gd] [gd][gd] | [g2d2] de fe dc | 
B2 Bc dc Bc | BA GA G2 F2 | "C"EE EE EE F2 | E2 GA Bc de :|2 [g4d4] "C7"[f4c4] | 
"F"a2 f2 c3f | zg2a g2 f2 | "Fm"^g2 f2 c3f | "Bb7 (b5)"zg2^g =g2 f2 | "C"g2 e2 c3_B | 
Bf2e2B3 | "A"_B=B e4 Be | z4 [e4A4] | "Dm"DE FG A4 | "G7"G^F GA BG AB | "C"c4 AB c2 | 
[e2c2] "Second Break"GA Bc de |: "C"[ec][ec] [ec][ec] [ec][ec] [ec][ec] | [e2c2] GA Bc de | 
"A"[e^c][ec] [ec][ec] [ec][ec] [ec][ec] | [e2^c2] GA B=c d2 | "Dm"[fd][fd] [fd][fd] [fd][fd] [fd][fd] | 
[fd][fd] [fc][fc] [f2d2] [f2c2] | "G"[fB][fB] [fB][fB] [fB][fB] [fB][fB] |1 [f2B2] GA Bc de | 
"Dm"[fd][fd] [fd][fd] [fd][fd] [fd][fd] | [fd][fd] [fc][fc] [f2d2] [f2c2] | "G"[fB][fB] [fB][fB] [fB][fB] [fB][fB] | 
[f2B2] de fe dc | B2 Bc dc Bc | BA GA G2 F2 | "C"EE EE EE F2 | E2 GA Bc de :|2 [f4B4] "C7"[f4c4] | 
"F"a2 f2 c3f | zg2a g2 f2 | "Fm"^g2 f2 c3f | "Bb7 (b5)"zg2^g =g2 f2 | "C"g2 e2 c3_B | 
Bf2e2B3 | "A"_B=B e4 Be | z8 | "Dm"DE FG A4 | "G7"G^F GA BG AB | "C"c4 AB c2 | 
[e8c8] | 


